X:1
M:6/8
L:1/8
K:D
| dfd cec | BAB BAF | EFA BAB | cAA A3 :| 
| cAA fdf | efe cBA | ABc BAB | cAA A3 :|| 

